icons/ui_folder_family_fill.svg

<svg width="48" height="48" viewBox="0 0 48 48" fill="none" xmlns="http://www.w3.org/2000/svg">
<path fill-rule="evenodd" clip-rule="evenodd" d="M27.1538 15L24.7117 10.5554C24.1847 9.59609 23.177 9 22.0825 9H9C7.34315 9 6 10.3431 6 12V36C6 37.6569 7.34315 39 9 39H39C40.6569 39 42 37.6569 42 36V18C42 16.3431 40.6569 15 39 15H27.1538ZM9 11C8.44772 11 8 11.4477 8 12V15H24.8718L22.9589 11.5184C22.7832 11.1987 22.4473 11 22.0825 11H9ZM12.5 25C12.5 23.3431 13.8431 22 15.5 22C17.1569 22 18.5 23.3431 18.5 25C18.5 26.6569 17.1569 28 15.5 28C13.8431 28 12.5 26.6569 12.5 25ZM32.5 28C34.1569 28 35.5 26.6569 35.5 25C35.5 23.3431 34.1569 22 32.5 22C30.8431 22 29.5 23.3431 29.5 25C29.5 26.6569 30.8431 28 32.5 28ZM28 33C28 31.3431 29.3431 30 31 30H34C35.6569 30 37 31.3431 37 33V35H28V33ZM11 33C11 31.3431 12.3431 30 14 30H17C18.6569 30 20 31.3431 20 33V35H11V33ZM24 29.5C25.1046 29.5 26 28.6046 26 27.5C26 26.3954 25.1046 25.5 24 25.5C22.8954 25.5 22 26.3954 22 27.5C22 28.6046 22.8954 29.5 24 29.5ZM21 34C21 32.3431 22.3431 31 24 31C25.6569 31 27 32.3431 27 34V35H21V34Z" fill="black"/>
</svg>

<svg
  xmlns="http://www.w3.org/2000/svg"
  width="24"
  height="24"
  viewBox="0 0 24 24"
  fill="none"
  stroke="currentColor"
  stroke-width="2"
  stroke-linecap="round"
  stroke-linejoin="round"
>
  <path
    fill-rule="evenodd"
    d="m27.154 15-2.442-4.445A3 3 0 0 0 22.082 9H9a3 3 0 0 0-3 3v24a3 3 0 0 0 3 3h30a3 3 0 0 0 3-3V18a3 3 0 0 0-3-3zM9 11a1 1 0 0 0-1 1v3h16.872l-1.913-3.482a1 1 0 0 0-.876-.518zm3.5 14a3 3 0 1 1 6 0 3 3 0 0 1-6 0m20 3a3 3 0 1 0 0-6 3 3 0 0 0 0 6M28 33a3 3 0 0 1 3-3h3a3 3 0 0 1 3 3v2h-9zm-17 0a3 3 0 0 1 3-3h3a3 3 0 0 1 3 3v2h-9zm13-3.5a2 2 0 1 0 0-4 2 2 0 0 0 0 4M21 34a3 3 0 1 1 6 0v1h-6z"
    clip-rule="evenodd"
  />
</svg>
